

hush

d1 $every 7 (rot 5)$every 4(#speed (0.9))$every 5 (jux rev)$every 4 (jux brak)$every 3 (#s "jungbass drum feel drum")$n "0 1 ~ 0 1*3 2 ~ 5 6 ~ 0 1 2 3" #s "ifdrums"
#lpf 8000
#shape (fast 3 $ range 0.1 0.9 sine)
#cps (slow 3 square + 0.1 + (slow 5 sine) )
#room (slow 5 square)

d2 $ someCycles (# shape 0.9) $every 2 (#speed "<0.9 0.7 0.5>")$sound "jungbass:4 cp*2" #cps "1"

d1 $stut 4 0.1 (-0.05)$every 3 (rot "2" . rev )$every 8 (const $chop 16 $ sound "breaks152" )$ someCycles (# shape 0.5) $s "ifdrums:3 [ifdrums ifdrums:1] ifdrums5 ~"
#cps (fast 3 tri + 0.1 + (slow 5 sine) +rand )
#room sine
#size sine
#speed (slow 2 sine +0.5)

cps 0.5
-- use this below
d1 $every 6 (#speed 9)$every 4 (jux rev)$loopAt "<12 4 8 4 2>"$ gap 256 $sound "sine" #cut "1"
#vowel "a e i o u" #room rand #speed (slow 5 sine + 0.5) #orbit 2


d2 $every 3 (ply "2")$ chunk 3 (# speed 0.75) $every 5 (stut 4 0.5 (-0.1))$every 4 (fast 16)$every 3 (#gain "0 1.2 0")$s "ifdrums/5 ifdrums:2/12 ~"
#room rand
#size rand
#pan (sine + saw)
#orbit 1

d3 $s "voodoo:4*9" #octer(slow 5 sine)

hush

d4 $s "808bd:2*2" #gain "1.2"

once $s "jungbass:8"
#delay "1"
#delayfb "1"
#delaytime "0.5"
#gain "0.9"
#distort "1"

-- use this above
d1 $scramble 4 $ n " e3 b3 ~ g3" # s "midi"

d2 $every 11 ((#crush "12 4 5 6") . (#speed "0.5 0.6 0.7 1"))
$every 5 ((#gain "1 0 0 0") . (#delay "1") . (#delaytime "0.5"). (#delayfb "0.5"))
$every 3 (jux rev) $scramble 4
$every 2 (ply "1 1 2 1")
$every 3 (rot 1)
$n (run 8) #s "feel"
# room (slow 4 $ perlin2 (square))
# pan rand

d2 silence


d1 $every 17 (#gain "0.0")$every 3 (slow 3)$every 4 (ply 2)$n "e g1 e5 ~" #s "super808" # voice (slow 5 isaw) # sustain (slow 7 isaw) #speed rand
#crush (slow 3 $range 3 7 square)

d2 $every 11 (#gain "0.0")$s "supersnare(3,8)" #decay rand

d3 $every 13 (fast 1.5)$s "superhat*4?" #n rand
hush

d1 $every 17 (#gain "0.0")$every 3 (slow 3)$every 4 (ply 2)$n "e g1 e5 ~"
#s "super808"
# voice ("1 0.5 1 0 1")
# sustain (slow 7 isaw)
#speed rand
#crush (slow 3 $range 3 7 square)
