
d1 $every 4 (jux (rev)) $
every 5 (striate 8) $
every 3 (chop 8) $
every 8 (linger 0.125) $
every 13 (jux(#speed 0.75))$
every 7(const $ sound "bd*3") $
sound "bd hh [~ cp?] hh*2"
#pan (scale 0.25 0.75 sine)

d1 silence

d2 $
every 7 (rev)$
every 5 (linger 0.125)$
every 2 (#gain "0.0")$
up "0 ~ 0.1 0.2 0.3 0.5 ~ 1.3"
#sound "jvbass"
#lpf ((scale 100 2500 sine) * (slow 16 saw))

d2 silence

hush
