asap $sound "rave:4*2 jungbass:5*4 rave ~" #cut "1"

d2 $whenmod 2 1 (#gain "0.0")$s "jungbass:6 [feel:0 feel:1 feel:2 feel:4 ~ feel:5 feel:6 feel:7] jungbass:5*5 [bd sd bd sd~ hh sd hh]"
#room "1"
#size rand
#delay "0.7"
#delayfeedback rand
#cut "1"

d1 $s "[jungbass:5 jungbass:5]*2 cp jungbass:5 [[cp] jungbass:5 ~ ~]" #cut "1" #crush "2 12 3 5"

d4 $chop 32 $s "breaks125" #gain "1" #speed "1 -1 1 -0.5 0.5 1 -0.75 1"
#room (fast 8 saw)
#size (fast 4 square)
let d1 = p 1 . (|< orbit 0)
    d2 = p 2 . (|< orbit 1)
    d3 = p 3 . (|< orbit 2)
    d4 = p 4 . (|< orbit 3)
    d5 = p 5 . (|< orbit 4)
    d6 = p 6 . (|< orbit 5)
    d7 = p 7 . (|< orbit 6)
    d8 = p 8 . (|< orbit 7)


d4 $s "jungbass:7 jungbass:7" #crush 8
#delay "0.7"
#delayfeedback (slow 3 sine)
#delaytime sine
#cut "1"
#room "1"
#size rand
#speed (irand 9)

d1 $every 4 (linger 0.25)$rot "<1 0 2 0 3 0 0 4 5 [~ 1 2 3] 0>"$n "0 1 2 [0 1] 4 5 6 7 0 0 [~4] 4 4 6 7 " #s "ifdrums ifdrums feel kicklinn" #speed "1" #cut "1"
#delay "0 1 0 1 0 0 1 0 1"
#delaytime"0.1 0.2 0 -0.5 0.3 0.1 0.1 0.2"
#delayfeedback rand
#cutoff "5000 6000 700"

d2 silence
once $sound "jungbass:3"
once $sound "jungbass:4"
once $sound "jungbass:5"
d3 $often (#gain "0")$sound "~ jungbass:4 jungbass:6 ~ jungbass:2" #crush (fast 2 $ range 3 8 sine) #cut "2" #lpq(slow 2 $range 0 0.2 sine) #cutoff "5000"
once $sound "jungbass:7"

d1 $rot "< 0 1 2 3 0 0 [ ~ 1 ~ 1 0 2 ~] 5 0 1>" $every 3 (linger (choose[0.2, 0.1, 0.05, 0.4]) )$cat [
n "0 1 2 3 [4 5] [0 1 0] 0 1 5 6" #s "feel",
n "0 2 3 [6 7] 5 ~ 4 3 6 2" #s "drum",
n "2 4 [ 3 3 3] 8 0 ~ {~ 1} 5 6 7" #s "feel",
n "1 2 1 3 1 2 {~ 1 2 3} 4 [5 5] ~" #s "ifdrums"
]
#cutoff (fast 20 $range 1000 8000 sine)
#lpq (fast 5 $ range 0 0.2 square)
#cps (slow 2 $ 0.5 + sine)

setcps 1.4
p "cpsfun" $every 5 (#gain "0 0 1 0")$ s "feel:6 jungbass:6? ~ [feel:2*2][~ feel:5]*2 sine? ~" #cps ((slow 4 tri) + (slow 3 square) +0.5) #cut "1"
#delay "0.7"
#delaytime (slow 4 $range 0.1 0.25 tri)
#delayfb "0.24 -0.24 0.5? -0.1"
#lock "1"

d1 $s "~control/2"
#size saw
#room isaw
hush

once $s "control:1*3 control*4"
once $s "control:2*5 "

-- October 21 2019

d1 $rot "<3 4 5>" $randcat [
n "0 1 2 3 [4 5] [0 1 0] 0 1 5 ~" #s "drum",
n "0 2 3 [6 7] 5 ~ 4 3 6 2" #s "drum",
n "2 4 [ ~ 3 3] 8 0 ~ {~ 1} 5 6 7" #s "drum",
n "1 2 1 3 1 2 {~ 1 2 3} 4 [5 5] ~" #s "drum",
n "0 [1 1] 0 [1 1] 1 1 2 [2 2] 2 ~" #s "drum"
]
|+|lpf (slow 4 $ range 5000 9000 sine)
|+|cutoff "0.1 0.2 0.3 0.4 0.5 0.1 0.2 0.3 0.4 0.5"

d4 silence

hush
d1 $rot "<1 2 3>" $randcat [
n "1 1 ~ ~ ~" #s "future",
n "1 1 [6 6] 7 ~" #s "future",
n "~ 3*5" #s "future"
]

d2 $stut (choose[13,17,23,5]) 0.5 (-0.01) $s "~sine/5 ~ cp/11 [sd sd]/13 ~ h/7 ~moog/17" #crush 4
#room isaw
#size rand
#cut "1"

d3 $every 2 (linger (choose [7/16,7/128,7/8,1]))$s "{[bd:1 bd:2 ~ [bd*3] bd ~ bd], [jungbass:2*4 cp]}" #cut "1" #crush "5"
d4 $n (run 3) #s "moog" #lpf (slow 32 $range 0 4000 saw) #cut "1" #gain "0.7"

d1 $every 4 (linger (choose [0.125, 0.01, 0.5]))$n (run 8) #s "koy"
#crush (fast 2 $ range 4 16 sine) #cut "1"

d1 $every 8 (linger 0.1)$rot "< 0 1 0 6 0>" $n "[5 5] ~ 1 [7 7 7] ~ 2 0 2 ~" #s "feel"

d2 $stut 3 0.5 (-0.25)$every 2 (linger 0.3)$up "<e3 g4 b4>" #s "sine" #crush "6"

-- October 21, 2019

d1 $cat [
almostNever (slow 3)$s "bd*28",
s "sd*14 ~",
s "hh*42",
s "~ [cp cp cp] ~ ~ ~ ~ "
]

hush



d1 $s "cp"

d1 $every 2 (linger 0.25 . fast 3)$fast 4 $randcat [
s "bd ~ ~ ~ bd ~ ~ ~",
s "~ hh ~ ~ ~ hh ~ ~ ~",
s "~ ~ sd ~ ~ ~ sd ~ "
]

hush|

d1 $every 3 (#gain "0.0 1")$every 3 (stut 5 0.25 (-0.25))$every 4 (rot "1")$jux rev $fast (choose[1,2,3]) $randcat [
s "bd(5,8)",
s "sd(3,8)?",
s "feel:2(3,4)" #crush 5
]

d1 $fastcat [
s "bd(5,8)" #almostNever (#gain "0.0"),
s "sd(3,8)" #rarely (#gain "0.0"),
s "voodoo:3(7,8)" #crush
]

-- comment

d1 $every 2 (rot "4")$randcat [
s "[bd*2~ bd] [~hh hh] bd sd [hh*3] [bd ~ bd] ~ bd",
s "[bd~ bd] [~hh hh] bd sd [hh*3] [bd*2 ~ bd] ~ ~" #speed (-0.9),
s "[bd~ bd] [~hh hh*2] bd sd [hh*3] ~ ~ ~" #crush "4",
s "voodoo:3(7,8)" #delay "0.5" #delayfb "0.25" #delaytime "0.125"
]

d1  $every 5 (rot "1") $every 2 (linger 0.1)$randcat [
every 7 (fast 5) $s "bd(5,8)" #crush "6",
s "sd(3,8)" #room "-0.25" #size "-0.25",
s "voodoo:3(7,8)" #delay "0.5" #delayfb "0.25" #delaytime "0.125",
s "~ ~ ~ ~ ifdrums:2*6" #speed (choose[1,-1.1,-0.9,0.8]),
every 2 (#speed (choose [-1,-1.1,-0.9,-0.5,-1.5])) $s "control(7,9)"#delay "0.5" #delayfb rand #delaytime sine #lpf (slow 2 $range 2000 8000 sine)
]

hush
-- USE THIS below
d1 $every 7(rot "2,3")$struct (every 2 inv "1 1 0 0 1 1/2 0/2 0/2 0 0 0 0 0 1") $sound "glitch:0 glitch:5"
#delay (slow 2 tri)
#delayfb (slow 3 sine)
#delaytime "0.009"
d2 $every 11 (rot "1,2")$every 5 (chop (choose[50,21]))$struct (every 3 inv "0 0 0 1 0/2 1/2 0/2 ")$ sound "glitch:5 glitch:7"
d3 $struct (every 8 inv "0*2 0 0 0 0 0 0 0*2 0 0 0 1/3 1/3 1/3") $sound "glitch:4 808bd glitch:3"
solo 1
-- Use this above
d1 $ randcat [
s "glitch*11",
s "glitch:1*5",
s "sine(7,8)" #n (4),
s "glitch:3*3" #lpf 2000,
s "~"
] #delay "0.5" #delayfb tri #delaytime sine

d1 $ sound "metal(5,8)" # up "0,3,7"
#delay "0.5" #delayfb tri #delaytime sine

d1 $every 7 (jux rev)$every 5 (#speed "0.9 -0.9")$every 3 (stut 5 0.01 (-0.003))$ struct (every 2 inv "1 1 0 1 [0 0] 1 0 1") $ sound "voodoo voodoo:1"
#room (slow 3 sine) #size (slow 5 sine)
#pan rand
d2 $slow 9 $s "supercomparator/3" #n "e5 g5 b3" #decay "0.1"
